build/img/icon-youtube.svg

<svg width="20" height="20" viewBox="0 0 20 20" fill="none" xmlns="http://www.w3.org/2000/svg">
<path d="M9.50583 7.43994C9.57447 7.48113 9.66369 7.50858 9.74605 7.50172C9.83528 7.50858 9.9245 7.48799 10 7.43994C10.0618 7.40563 10.0961 7.34386 10.0961 7.26836V5.82704C10.0961 5.76527 10.0549 5.71723 10 5.68977C9.9245 5.64859 9.83528 5.63487 9.75292 5.63487C9.67056 5.628 9.59506 5.64859 9.51956 5.68977C9.46465 5.71723 9.43034 5.76527 9.43034 5.82704V7.26836C9.42347 7.33699 9.45093 7.39876 9.50583 7.43994Z" fill="white" fill-opacity="0.3"/>
<path d="M8.48318 13.7474C8.42141 13.8023 8.35278 13.8435 8.27728 13.8778C8.22237 13.9053 8.1606 13.9259 8.09197 13.9327C8.04393 13.9396 7.99588 13.9259 7.9547 13.8916C7.92725 13.8572 7.91352 13.8092 7.91352 13.768V11.8737H7.25463V13.9327C7.24777 14.0563 7.28895 14.173 7.37131 14.269C7.4674 14.3514 7.59094 14.3926 7.71448 14.3789C7.84489 14.3789 7.97529 14.3514 8.09883 14.2965C8.2361 14.2416 8.36651 14.1661 8.47632 14.07V14.3377H9.13521L9.14207 11.8737H8.48318V13.7474Z" fill="white" fill-opacity="0.3"/>
<path d="M5.38778 11.6884H6.01922V14.3034H6.63006V11.6884H7.25463L7.2615 11.2423H5.38778V11.6884Z" fill="white" fill-opacity="0.3"/>
<path d="M10 0C4.47495 0 0 4.47495 0 10C0 15.5251 4.47495 20 10 20C15.5251 20 20 15.5251 20 10C20 4.47495 15.5182 0 10 0ZM11.4413 7.54976V5.01029H12.0316V7.34386C12.0247 7.39876 12.0384 7.45367 12.0728 7.50172C12.1002 7.53603 12.1482 7.55662 12.1894 7.54976C12.2512 7.5429 12.3061 7.52231 12.3542 7.48799C12.4228 7.43994 12.4846 7.38504 12.5326 7.32327V5.01029H13.1229V8.04393H12.5326V7.70762C12.4365 7.8243 12.3198 7.92038 12.1894 7.98902C12.0728 8.05079 11.9561 8.11942 11.8463 8.11942C11.7227 8.11256 11.6129 8.05765 11.5443 7.9547C11.4688 7.83802 11.4276 7.69389 11.4413 7.54976ZM8.75086 5.75154C8.74399 5.53192 8.85381 5.33288 9.03226 5.20933C9.21757 5.07207 9.47152 5.01029 9.78723 5.01029C10.0412 4.99657 10.2883 5.07207 10.4942 5.22306C10.6726 5.35347 10.7756 5.55251 10.7687 5.77213V7.28895C10.7756 7.51544 10.6795 7.73507 10.501 7.8792C10.2883 8.04393 10.0275 8.12629 9.75978 8.11942C9.49211 8.12629 9.23816 8.03706 9.03226 7.86548C8.85381 7.72134 8.75086 7.50172 8.75772 7.26836V5.75154H8.75086ZM7.00069 3.75429L7.48113 5.50446H7.53603L7.99588 3.75429H8.75086L7.88607 6.31434V8.13315H7.13795V6.39671L6.24571 3.75429H7.00069ZM15.3809 13.6376C15.3809 14.7289 14.4612 15.6143 13.3288 15.6143H6.1908C5.05834 15.6143 4.13864 14.7289 4.13864 13.6376V11.9698C4.13864 10.8785 5.05834 9.99314 6.1908 9.99314H13.3288C14.4612 9.99314 15.3809 10.8785 15.3809 11.9698V13.6376Z" fill="white" fill-opacity="0.3"/>
<path d="M11.6266 12.6012C11.6404 12.4434 11.5786 12.2855 11.4619 12.1757C11.3521 12.0796 11.1942 12.0316 10.9883 12.0316C10.8854 12.0316 10.7824 12.0522 10.6863 12.0865C10.5834 12.1277 10.4942 12.1757 10.4049 12.2443V11.2491H9.74605V14.3445H10.4049V14.173C10.4873 14.2416 10.5834 14.2965 10.6795 14.3308C10.7893 14.3651 10.906 14.3789 11.0226 14.3789C11.2148 14.3789 11.3658 14.3377 11.4619 14.2485C11.5649 14.1524 11.6266 14.0151 11.6129 13.8778L11.6266 12.6012ZM10.9609 13.8023C10.9677 13.8572 10.9472 13.919 10.906 13.9602C10.8579 13.9945 10.7962 14.0151 10.7344 14.0082L10.5765 13.9808C10.5216 13.9602 10.4667 13.9327 10.4255 13.8984V12.4777L10.5628 12.4091L10.7001 12.3885C10.7687 12.3885 10.8442 12.4091 10.8991 12.4502C10.9472 12.4983 10.9746 12.5601 10.9677 12.6218V13.8023H10.9609Z" fill="white" fill-opacity="0.3"/>
<path d="M13.4866 13.617C13.4866 13.7543 13.466 13.8435 13.4248 13.8847C13.3631 13.9327 13.2807 13.9533 13.2052 13.9465C13.1297 13.9533 13.0474 13.9259 12.9925 13.8778C12.9444 13.8023 12.9238 13.7062 12.9307 13.617V13.1709H14.1386V12.5669C14.1524 12.3679 14.0631 12.1757 13.9053 12.0522C13.7474 11.9355 13.5209 11.8737 13.2327 11.8737C12.9513 11.8737 12.7179 11.9355 12.5395 12.0659C12.3679 12.1757 12.2649 12.3679 12.2718 12.5669V13.6307C12.2649 13.8367 12.3542 14.0357 12.5189 14.1661C12.6836 14.2965 12.9032 14.3583 13.1915 14.3583C13.5072 14.3583 13.7406 14.2965 13.9053 14.173C14.0631 14.0494 14.1455 13.8641 14.1455 13.6239V13.5003H13.4935V13.617H13.4866ZM13.0199 12.3542C13.0817 12.3061 13.1572 12.2787 13.2395 12.2924C13.315 12.2855 13.3905 12.3061 13.4523 12.3542C13.5003 12.4159 13.5278 12.4914 13.5209 12.5669V12.8071H12.9581V12.5601C12.9444 12.4846 12.965 12.4091 13.0199 12.3542Z" fill="white" fill-opacity="0.3"/>
</svg>

<svg width="20" height="20" fill="none" xmlns="http://www.w3.org/2000/svg"><path d="M9.506 7.44a.42.42 0 00.24.062A.413.413 0 0010 7.44a.188.188 0 00.096-.172V5.827c0-.062-.041-.11-.096-.137a.52.52 0 00-.247-.055.405.405 0 00-.233.055.15.15 0 00-.09.137v1.441c-.007.069.02.13.076.172zm-1.023 6.307a.805.805 0 01-.206.13.528.528 0 01-.185.056.173.173 0 01-.137-.041.206.206 0 01-.041-.124v-1.894h-.66v2.059a.47.47 0 00.117.336c.096.082.22.124.343.11.13 0 .261-.028.385-.082a1.29 1.29 0 00.377-.227v.268h.66l.006-2.464h-.659v1.873zm-3.095-2.059h.631v2.615h.611v-2.615h.625l.006-.446H5.388v.446z" fill="#fff" fill-opacity=".3"/><path d="M10 0C4.475 0 0 4.475 0 10s4.475 10 10 10 10-4.475 10-10S15.518 0 10 0zm1.441 7.55V5.01h.59v2.334a.22.22 0 00.042.158.13.13 0 00.116.048.344.344 0 00.165-.062.821.821 0 00.179-.165V5.01h.59v3.034h-.59v-.336a1.126 1.126 0 01-.344.281c-.116.062-.233.13-.343.13a.377.377 0 01-.302-.164.642.642 0 01-.103-.405zm-2.69-1.798a.635.635 0 01.281-.543c.186-.137.44-.199.755-.199.254-.013.501.062.707.213a.65.65 0 01.275.55v1.516a.728.728 0 01-.268.59 1.157 1.157 0 01-.741.24 1.084 1.084 0 01-.728-.254.739.739 0 01-.274-.597V5.752H8.75zM7 3.754l.48 1.75h.055l.46-1.75h.755l-.865 2.56v1.82h-.748V6.396l-.892-2.643H7zm8.38 9.884c0 1.09-.92 1.976-2.052 1.976H6.19c-1.133 0-2.052-.885-2.052-1.976V11.97c0-1.091.92-1.977 2.052-1.977h7.138c1.132 0 2.052.886 2.052 1.977v1.668z" fill="#fff" fill-opacity=".3"/><path d="M11.627 12.601a.525.525 0 00-.165-.425c-.11-.096-.268-.144-.474-.144a.905.905 0 00-.302.054c-.103.042-.192.09-.281.158v-.995h-.659v3.095h.659v-.171a.921.921 0 00.275.158c.11.034.226.048.343.048.192 0 .343-.041.439-.13a.455.455 0 00.15-.371l.015-1.277zm-.666 1.201a.196.196 0 01-.055.158.252.252 0 01-.172.048l-.158-.027a.534.534 0 01-.15-.083v-1.42l.137-.069.137-.02c.069 0 .144.02.2.061.047.048.075.11.068.172v1.18h-.007zm2.526-.185c0 .137-.021.226-.062.268a.318.318 0 01-.22.062.295.295 0 01-.213-.07.433.433 0 01-.061-.26v-.446h1.208v-.604a.603.603 0 00-.234-.515c-.158-.117-.384-.178-.672-.178-.282 0-.515.061-.694.192a.577.577 0 00-.267.5v1.065a.653.653 0 00.247.535c.165.13.384.192.672.192.316 0 .55-.062.714-.185.158-.124.24-.309.24-.55V13.5h-.652v.117h-.006zm-.467-1.263a.279.279 0 01.22-.062.3.3 0 01.212.062.305.305 0 01.069.213v.24h-.563v-.247a.229.229 0 01.062-.206z" fill="#fff" fill-opacity=".3"/></svg>
